tenants/businesswise/icons/channel_pinterest.svg

<svg fill="none" height="32" viewBox="0 0 32 32" width="32" xmlns="http://www.w3.org/2000/svg" xmlns:xlink="http://www.w3.org/1999/xlink"><clipPath id="a"><path d="m0 0h32v32h-32z"/></clipPath><g clip-path="url(#a)" clip-rule="evenodd" fill="#000" fill-rule="evenodd"><path d="m16 1.88235c-7.79696 0-14.11765 6.32069-14.11765 14.11765 0 7.797 6.32069 14.1176 14.11765 14.1176 7.797 0 14.1176-6.3206 14.1176-14.1176 0-7.79696-6.3206-14.11765-14.1176-14.11765zm-16 14.11765c0-8.83656 7.16344-16 16-16 8.8366 0 16 7.16344 16 16 0 8.8366-7.1634 16-16 16-8.83656 0-16-7.1634-16-16z"/><path d="m8.72729 13.7849c0 1.8683.70323 3.5302 2.21051 4.1496.2472.1015.4684.0036.5402-.2721.0498-.1903.1678-.6713.2199-.8718.0724-.2721.0445-.3676-.1553-.6051-.4341-.5162-.7121-1.1839-.7121-2.1303 0-2.7444 2.0403-5.20175 5.3139-5.20175 2.8983 0 4.4904 1.78245 4.4904 4.16225 0 3.1316-1.3775 5.7752-3.4213 5.7752-1.1296 0-1.9745-.9399-1.7035-2.0922.3243-1.3761.9522-2.8613.9522-3.8543 0-.8891-.4743-1.6303-1.4551-1.6303-1.1538 0-2.0818 1.2013-2.0818 2.8106 0 1.0258.3445 1.7186.3445 1.7186s-1.1811 5.0371-1.3881 5.919c-.412 1.7568-.0616 3.9098-.032 4.127.0172.1289.1815.16.2562.0627.1067-.1402 1.4806-1.8481 1.949-3.5541.1316-.4834.7583-2.9855.7583-2.9855.3754.7197 1.4711 1.3534 2.6363 1.3534 3.4699 0 5.8232-3.183 5.8232-7.4437 0-3.2217-2.7115-6.2221-6.8324-6.2221-5.1272 0-7.71301 3.6997-7.71301 6.7849z"/></g></svg>

<svg width="32" height="32" viewBox="0 0 32 32" fill="none" xmlns="http://www.w3.org/2000/svg">
<g clip-path="url(#clip0_2137_28198)">
<path fill-rule="evenodd" clip-rule="evenodd" d="M16 1.88235C8.20304 1.88235 1.88235 8.20304 1.88235 16C1.88235 23.797 8.20304 30.1176 16 30.1176C23.797 30.1176 30.1176 23.797 30.1176 16C30.1176 8.20304 23.797 1.88235 16 1.88235ZM0 16C0 7.16344 7.16344 0 16 0C24.8366 0 32 7.16344 32 16C32 24.8366 24.8366 32 16 32C7.16344 32 0 24.8366 0 16Z" fill="black"/>
<path fill-rule="evenodd" clip-rule="evenodd" d="M8.72729 13.7849C8.72729 15.6532 9.43052 17.3151 10.9378 17.9345C11.185 18.036 11.4062 17.9381 11.478 17.6624C11.5278 17.4721 11.6458 16.9911 11.6979 16.7906C11.7703 16.5185 11.7424 16.423 11.5426 16.1855C11.1085 15.6693 10.8305 15.0016 10.8305 14.0552C10.8305 11.3108 12.8708 8.85345 16.1444 8.85345C19.0427 8.85345 20.6348 10.6359 20.6348 13.0157C20.6348 16.1473 19.2573 18.7909 17.2135 18.7909C16.0839 18.7909 15.239 17.851 15.51 16.6987C15.8343 15.3226 16.4622 13.8374 16.4622 12.8444C16.4622 11.9553 15.9879 11.2141 15.0071 11.2141C13.8533 11.2141 12.9253 12.4154 12.9253 14.0247C12.9253 15.0505 13.2698 15.7433 13.2698 15.7433C13.2698 15.7433 12.0887 20.7804 11.8817 21.6623C11.4697 23.4191 11.8201 25.5721 11.8497 25.7893C11.8669 25.9182 12.0312 25.9493 12.1059 25.852C12.2126 25.7118 13.5865 24.0039 14.0549 22.2979C14.1865 21.8145 14.8132 19.3124 14.8132 19.3124C15.1886 20.0321 16.2843 20.6658 17.4495 20.6658C20.9194 20.6658 23.2727 17.4828 23.2727 13.2221C23.2727 10.0004 20.5612 7 16.4403 7C11.3131 7 8.72729 10.6997 8.72729 13.7849Z" fill="black"/>
</g>
<defs>
<clipPath id="clip0_2137_28198">
<rect width="32" height="32" fill="white"/>
</clipPath>
</defs>
</svg>
